svgs/light/sterling-sign.svg

<svg xmlns="http://www.w3.org/2000/svg" viewBox="0 0 320 512"><!--! Font Awesome Pro 6.0.0-alpha3 by @fontawesome - https://fontawesome.com License - https://fontawesome.com/license (Commercial License) --><path d="M320 464c0 8.844-7.156 16-16 16h-288c-5.531 0-10.69-2.875-13.62-7.594c-2.906-4.719-3.156-10.61-.6875-15.56C27.92 404.4 42.69 346.5 46.4 288H16C7.156 288 0 280.8 0 272S7.156 256 16 256h32V160.3C48 89.55 105.6 32 176.3 32c23.66 0 46.88 6.422 67.13 18.59l52.81 31.69c7.594 4.547 10.06 14.38 5.5 21.95c-4.562 7.625-14.41 10.02-21.94 5.484l-52.81-31.69C211.7 68.86 194.1 64 176.3 64C123.2 64 80 107.2 80 160.3V256h160C248.8 256 256 263.2 256 272S248.8 288 240 288H78.58c-3.246 54.97-15.61 109.5-37.49 160H304C312.8 448 320 455.2 320 464z"/></svg>

<svg xmlns="http://www.w3.org/2000/svg" viewBox="0 0 320 512"><!-- Font Awesome Pro 6.0.0-alpha2 by @fontawesome - https://fontawesome.com License - https://fontawesome.com/license (Commercial License) --><path d="M320 464C320 472.844 312.844 480 304 480H16C10.469 480 5.312 477.125 2.375 472.406C-0.531 467.688 -0.781 461.797 1.688 456.844C27.916 404.414 42.693 346.527 46.398 288H16C7.156 288 0 280.844 0 272S7.156 256 16 256H48V160.297C48 89.547 105.562 32 176.281 32C199.938 32 223.156 38.422 243.406 50.594L296.219 82.281C303.812 86.828 306.281 96.656 301.719 104.234C297.156 111.859 287.312 114.25 279.781 109.719L226.969 78.031C211.656 68.859 194.125 64 176.281 64C123.188 64 80 107.203 80 160.297V256H240C248.844 256 256 263.156 256 272S248.844 288 240 288H78.582C75.336 342.975 62.969 397.469 41.094 448H304C312.844 448 320 455.156 320 464Z"/></svg>
